common/src/main/resources/files/plugins/javascript/stylelint.svg

<svg xmlns="http://www.w3.org/2000/svg" width="16" height="16" data-big="true" viewBox="0 -1 16 16"><path fill="#7A8387" d="M8.1 14.954C9.628 9.226 9.581 9.2 10.688 5.116l.266.161a.161.161 0 0 0 .262-.158V3.17c.295-1.076.525-1.907.592-2.156h1.2L15 2.944l-1.308 1.182.989 1.119-6.519 9.709c-.032.055-.077.043-.066 0Zm.708-12.346a.1.1 0 0 1 .107.077v1a.1.1 0 0 1-.107.075H7.2a.1.1 0 0 1-.11-.079v-1a.1.1 0 0 1 .11-.074zM10.8 1.5 9.024 2.574a.2.2 0 0 1 .033.111v1a.2.2 0 0 1-.057.13L10.795 4.9a.136.136 0 0 0 .222-.134V1.637a.136.136 0 0 0-.222-.137ZM6.947 3.683v-1a.2.2 0 0 1 .033-.111L5.209 1.5a.136.136 0 0 0-.222.134v3.131a.137.137 0 0 0 .223.135L7 3.819a.22.22 0 0 1-.05-.137Zm.892 11.271H7.9C6.376 9.226 6.42 9.2 5.314 5.116l-.266.161a.161.161 0 0 1-.263-.158V3.17c-.295-1.076-.525-1.908-.592-2.157h-1.2L1 2.944l1.308 1.182-.989 1.121 6.519 9.707Zm.112-10.123a.507.507 0 1 1-.484.506.5.5 0 0 1 .484-.506m0 3.008a.507.507 0 1 1-.484.506.5.5 0 0 1 .484-.506m0 3.009a.507.507 0 1 1-.484.506.5.5 0 0 1 .484-.506" class="i-color" data-iconColor="Stylelint"/></svg>

<!--
  - The MIT License (MIT)
  -
  - Copyright (c) 2015-2024 Elior "Mallowigi" Boukhobza
  -
  - Permission is hereby granted, free of charge, to any person obtaining a copy
  - of this software and associated documentation files (the "Software"), to deal
  - in the Software without restriction, including without limitation the rights
  - to use, copy, modify, merge, publish, distribute, sublicense, and/or sell
  - copies of the Software, and to permit persons to whom the Software is
  - furnished to do so, subject to the following conditions:
  -
  - The above copyright notice and this permission notice shall be included in all
  - copies or substantial portions of the Software.
  -
  - THE SOFTWARE IS PROVIDED "AS IS", WITHOUT WARRANTY OF ANY KIND, EXPRESS OR
  - IMPLIED, INCLUDING BUT NOT LIMITED TO THE WARRANTIES OF MERCHANTABILITY,
  - FITNESS FOR A PARTICULAR PURPOSE AND NONINFRINGEMENT. IN NO EVENT SHALL THE
  - AUTHORS OR COPYRIGHT HOLDERS BE LIABLE FOR ANY CLAIM, DAMAGES OR OTHER
  - LIABILITY, WHETHER IN AN ACTION OF CONTRACT, TORT OR OTHERWISE, ARISING FROM,
  - OUT OF OR IN CONNECTION WITH THE SOFTWARE OR THE USE OR OTHER DEALINGS IN THE
  - SOFTWARE.
  -->

<svg data-big="true" xmlns="http://www.w3.org/2000/svg" width="16px" height="16px" viewBox="0 -1 16 16">
  <path id="file_type_stylelint.svg" class="i-color" fill="#7A8387" data-iconColor="Stylelint"
        d="M8.1,14.954C9.628,9.226,9.581,9.2,10.688,5.116l0.266,0.161a0.161,0.161,0,0,0,.262-0.158V3.17c0.295-1.076.525-1.907,0.592-2.156h1.2L15,2.944,13.692,4.126l0.989,1.119L8.162,14.954c-0.032.055-.077,0.043-0.066,0h0ZM8.808,2.608a0.1,0.1,0,0,1,.107.077v1a0.1,0.1,0,0,1-.107.075H7.2A0.1,0.1,0,0,1,7.09,3.681v-1A0.1,0.1,0,0,1,7.2,2.607H8.808ZM10.8,1.5L9.024,2.574a0.208,0.208,0,0,1,.033.111v1A0.2,0.2,0,0,1,9,3.815L10.795,4.9a0.136,0.136,0,0,0,.222-0.134V1.637A0.136,0.136,0,0,0,10.795,1.5h0ZM6.947,3.683v-1a0.21,0.21,0,0,1,.033-0.111L5.209,1.5a0.136,0.136,0,0,0-.222.134V4.765A0.137,0.137,0,0,0,5.21,4.9L7,3.819A0.217,0.217,0,0,1,6.95,3.682h0ZM7.839,14.954H7.9C6.376,9.226,6.42,9.2,5.314,5.116l-0.266.161a0.161,0.161,0,0,1-.263-0.158V3.17C4.49,2.094,4.26,1.262,4.193,1.013h-1.2L1,2.944,2.308,4.126,1.319,5.247l6.519,9.707h0ZM7.951,4.831a0.507,0.507,0,1,1-.484.506A0.5,0.5,0,0,1,7.951,4.831Zm0,3.008a0.507,0.507,0,1,1-.484.506A0.5,0.5,0,0,1,7.951,7.839Zm0,3.009a0.507,0.507,0,1,1-.484.506A0.5,0.5,0,0,1,7.951,10.848Z"
        transform="translate(0 0)"/>
</svg>
